X:283
T:Steirer (81.)
C:traditionell
A:Salzkammergut
S:MIDI erhalten von Christian Amon. Nach einer kopie im besitz von Johann Stoeckl eines manuscriptes. Stoeckl(zitiert von Amon): "diese sammlung wurde 1935 im hause der familie Hohenlohe-Schillingfuerst gefunden. Sie wurde von einem der beiden brueder Steinegger 1866 verfasst. Die originale sind im Ausseer Kammerhofmuseum".
M:3/4
L:1/8
K:G
V:1
e'2 d'2 c'2 | bg dg b2 | c'f df c'2 | bg dg b2 |\
e'2 d'2 c'2 | bg dg b2 | c'f df c'f | g4 z2 |*
V:2
c'2 b2 a2 | gd Bd g2 | ad Ad a2 | gd Bd g2 |\
c'2 b2 a2 | gd Bd g2 | ad Ad ad | B4 z2 |*
